Breeze Round Dark/actions/24/kdenlive-split-audio.svg

<svg xmlns="http://www.w3.org/2000/svg" viewBox="0 0 24 24" width="24" height="24">
  <defs id="defs3051">
    <style type="text/css" id="current-color-scheme">.ColorScheme-Text {color:#fcfcfc;}</style>
  </defs>
  <g transform="translate(1,1)">
    <path style="fill:currentColor;fill-opacity:1;stroke:none" d="m 3,3 c 0,1 0,6 0,7 0,1 1,1 1,1 h 2 10 2 c 0,0 0.992527,0 1,-1 0.0075,-1 0,-6 0,-7 C 19,2 18,2 18,2 H 16 6 4 C 4,2 3,2 3,3 Z M 4,3 H 5 V 4 H 4 Z m 2,0 h 10 v 3 1 3 H 6 V 7 6 Z m 11,0 h 1 V 4 H 17 Z M 4,6 H 5 V 7 H 4 Z m 13,0 h 1 V 7 H 17 Z M 4,9 h 1 v 1 H 4 Z m 13,0 h 1 v 1 H 17 Z M 5,12 v 2 H 4 v 1 H 3 v 1 h 1 v 1 h 1 v 2 h 1 v -1 h 1 v -1 h 1 v -1 h 1 v 1 h 1 v 2 h 1 v -1 h 1 v -2 h 1 v 1 h 1 v 1 h 1 v 1 h 1 v -1 h 1 v -1 h 1 v -1 h 1 v -1 h -1 v -1 h -1 v -1 h -1 v -1 h -1 v 1 h -1 v 1 h -1 v 1 h -1 v -2 h -1 v -1 h -1 v 2 H 9 v 1 H 8 V 14 H 7 V 13 H 6 v -1 z" class="ColorScheme-Text"/>
  </g>
</svg>

<svg xmlns="http://www.w3.org/2000/svg" viewBox="0 0 24 24">
  <defs id="defs3051">
    <style type="text/css" id="current-color-scheme">
      .ColorScheme-Text {
        color:#eff0f1;
      }
      </style>
  </defs><g transform="translate(1,1)">
 <path 
     style="fill:currentColor;fill-opacity:1;stroke:none" 
     d="M 3 2 L 3 6 L 3 7 L 3 11 L 4 11 L 6 11 L 16 11 L 18 11 L 19 11 L 19 7 L 19 6 L 19 2 L 18 2 L 16 2 L 6 2 L 4 2 L 3 2 z M 4 3 L 5 3 L 5 4 L 4 4 L 4 3 z M 6 3 L 16 3 L 16 6 L 16 7 L 16 10 L 6 10 L 6 7 L 6 6 L 6 3 z M 17 3 L 18 3 L 18 4 L 17 4 L 17 3 z M 4 6 L 5 6 L 5 7 L 4 7 L 4 6 z M 17 6 L 18 6 L 18 7 L 17 7 L 17 6 z M 4 9 L 5 9 L 5 10 L 4 10 L 4 9 z M 17 9 L 18 9 L 18 10 L 17 10 L 17 9 z M 5 12 L 5 14 L 4 14 L 4 15 L 3 15 L 3 16 L 4 16 L 4 17 L 5 17 L 5 19 L 6 19 L 6 18 L 7 18 L 7 17 L 8 17 L 8 16 L 9 16 L 9 17 L 10 17 L 10 19 L 11 19 L 11 18 L 12 18 L 12 16 L 13 16 L 13 17 L 14 17 L 14 18 L 15 18 L 15 19 L 16 19 L 16 18 L 17 18 L 17 17 L 18 17 L 18 16 L 19 16 L 19 15 L 18 15 L 18 14 L 17 14 L 17 13 L 16 13 L 16 12 L 15 12 L 15 13 L 14 13 L 14 14 L 13 14 L 13 15 L 12 15 L 12 13 L 11 13 L 11 12 L 10 12 L 10 14 L 9 14 L 9 15 L 8 15 L 8 14 L 7 14 L 7 13 L 6 13 L 6 12 L 5 12 z "
     class="ColorScheme-Text"
     />
</g></svg>
